X: 19
T: Paddie's Resource
%R: jig
B: Stewart "A Select Collection of Airs, Jigs, Marches and Reels", ca.1784, p.10 #19
F: http://imslp.org/wiki/A_Select_Collection_of_Airs,_Jigs,_Marches_and_Reels_%28Various%29
Z: 2017 John Chambers <jc:trillian.mit.edu>
M: 6/8
L: 1/8
K: C
e |\
(c>dc) GEG | (cd).c a2g | agf edc | dAA (A2B) |\
(c>dc) GEG | (cd).c a2g | gab c'gf | ecc c2 :|
|: c |\
Gce edc | GBd dBG | Gce edc | (ef).e {e}d2c |\
ceg c'ba | (ge).c {e}Td2c | edc Gcd | ecc c2 :|
